src/images_karasa_jaga_svg/cmd/sc_alignbottom.svg

<svg height="16" width="16" xmlns="http://www.w3.org/2000/svg" xmlns:xlink="http://www.w3.org/1999/xlink"><filter id="a"><feGaussianBlur stdDeviation="2.0786429"/></filter><radialGradient id="b" cx="108" cy="128.54001" gradientTransform="matrix(.96492761 0 0 .96460465 -1.636086 11.875114)" gradientUnits="userSpaceOnUse" r="139.55859"><stop offset="0" stop-color="#b7b8b9"/><stop offset=".18851049" stop-color="#ececec"/><stop offset=".25718147" stop-color="#fafafa"/><stop offset=".30111277" stop-color="#fff"/><stop offset=".5313" stop-color="#fafafa"/><stop offset=".8449" stop-color="#ebecec"/><stop offset="1" stop-color="#e1e2e3"/></radialGradient><radialGradient id="c" cx="108.20914" cy="71.064751" gradientTransform="matrix(2.64737 .00000009 -.0000001 4.0078778 -177.86744 -228.81885)" gradientUnits="userSpaceOnUse" r="22.436539"><stop offset="0" stop-color="#9abcee"/><stop offset="1" stop-color="#092042"/></radialGradient><linearGradient id="d" gradientUnits="userSpaceOnUse" x1="104.81149" x2="104.81149" y1="-12.90279" y2="47.946011"><stop offset="0" stop-color="#bfe7ff"/><stop offset="1" stop-color="#bff9ff" stop-opacity="0"/></linearGradient><linearGradient id="e" gradientUnits="userSpaceOnUse" x1="75.896461" x2="116.05045" y1="82.185677" y2="82.185677"><stop offset="0" stop-color="#5875a0"/><stop offset="1" stop-color="#6a88b5"/></linearGradient><g transform="scale(.125)"><path d="m6 6-.013668 121.05794h119.999998l.01367-121.05794z" filter="url(#a)" opacity=".758364" transform="matrix(.96492763 0 0 .96492763 .293768 .293073)"/><path d="m8.0131886 8.0124942-.0131886 111.9875058h112l-.0684-.81415.0132-111.1733558z" fill="#fff" stroke-width=".964928"/><path d="m16.697537 15.731915c-.531675 0-.964927.433432-.964927.964928v93.597977h95.2866c1.12141.0343 1.20616-1.54398 1.20616-1.77908v-91.818897c0-.531496-.43229-.964928-.96492-.964928z" fill="url(#b)" stroke-width=".964928"/><g fill="#404040" fill-opacity=".839216" transform="translate(0 16)"><path d="m24 88v-8h60v8z"/><path d="m24 56v-8.221681h60.494988v8.221681z"/><path d="m24 72v-8h40v8z"/></g><g transform="matrix(1 0 0 -1 0 128)"><path d="m99.77334 32.697089c-2.21289.05414-16.29476.518302-17.711568 2.219032l-16.065632 30.102878c-2.541118 3.051869-2.335727 7.537886.473634 10.344785l13.59905.994999.220211-.143314.03321 47.242161 27.355495.54237v-.006l-.0332-47.11457 13.6707-.865664c2.92778-2.789649 3.18996-7.372015.59945-10.477386l-24.08833-30.083128c-1.50122-1.798818 4.28922-2.813775 1.94698-2.756163z" fill="#fff" fill-opacity=".915441" fill-rule="evenodd"/><path d="m99.96209 40.371351-22.02194 27.475392 18.05985-3.846743v56h8l-.00001-55.461122 18.06334 3.831013z" fill="none" stroke="url(#e)" stroke-linecap="round" stroke-linejoin="round" stroke-width="15"/><g fill-rule="evenodd" transform="translate(-8)"><path d="m107.96209 40.371351-20.02194 27.475392 16.05985-3.846743v56h8l-.00001-55.461125 16.06334 3.831013z" fill="url(#c)"/><path d="m104 8-.0195 26.132214c.41716.01589.83427.02951 1.25195.03906 2.26601-.0118 4.4957-.659132 6.73828-.856823l-.0156-23.147081.041.0098.00387-2.17717z" fill="url(#d)" transform="matrix(1 0 0 -1 0 128)"/></g></g></g></svg>

<?xml version="1.0" encoding="UTF-8" standalone="no"?>
<svg
   xmlns:dc="http://purl.org/dc/elements/1.1/"
   xmlns:cc="http://creativecommons.org/ns#"
   xmlns:rdf="http://www.w3.org/1999/02/22-rdf-syntax-ns#"
   xmlns:svg="http://www.w3.org/2000/svg"
   xmlns="http://www.w3.org/2000/svg"
   xmlns:sodipodi="http://sodipodi.sourceforge.net/DTD/sodipodi-0.dtd"
   xmlns:inkscape="http://www.inkscape.org/namespaces/inkscape"
   height="128"
   width="128"
   version="1.1"
   id="svg61"
   sodipodi:docname="sc_alignbottom.svg"
   inkscape:export-filename="/home/rizmut/Dokumen/Rizmut/Github/libreoffice-style-karasa-jaga/build/images_karasa_jaga/cmd/sc_alignbottom.png"
   inkscape:export-xdpi="12"
   inkscape:export-ydpi="12"
   inkscape:version="0.92.3 (unknown)">
  <metadata
     id="metadata67">
    <rdf:RDF>
      <cc:Work
         rdf:about="">
        <dc:format>image/svg+xml</dc:format>
        <dc:type
           rdf:resource="http://purl.org/dc/dcmitype/StillImage" />
        <dc:title />
      </cc:Work>
    </rdf:RDF>
  </metadata>
  <defs
     id="defs65" />
  <sodipodi:namedview
     pagecolor="#ffffff"
     bordercolor="#666666"
     borderopacity="1"
     objecttolerance="10"
     gridtolerance="10"
     guidetolerance="10"
     inkscape:pageopacity="0"
     inkscape:pageshadow="2"
     inkscape:window-width="1280"
     inkscape:window-height="738"
     id="namedview63"
     showgrid="true"
     inkscape:zoom="1.84375"
     inkscape:cx="61.782108"
     inkscape:cy="-2.3106174"
     inkscape:window-x="0"
     inkscape:window-y="0"
     inkscape:window-maximized="1"
     inkscape:current-layer="g59">
    <inkscape:grid
       type="xygrid"
       id="grid877"
       spacingx="8"
       spacingy="8"
       empspacing="1" />
  </sodipodi:namedview>
  <filter
     id="a">
    <feGaussianBlur
       stdDeviation="2.0786429"
       id="feGaussianBlur2" />
  </filter>
  <radialGradient
     id="b"
     cx="108"
     cy="128.54001"
     gradientTransform="matrix(.96492761 0 0 .96460465 -1.636086 11.875114)"
     gradientUnits="userSpaceOnUse"
     r="139.55859">
    <stop
       offset="0"
       stop-color="#b7b8b9"
       id="stop5" />
    <stop
       offset=".18851049"
       stop-color="#ececec"
       id="stop7" />
    <stop
       offset=".25718147"
       stop-color="#fafafa"
       id="stop9" />
    <stop
       offset=".30111277"
       stop-color="#fff"
       id="stop11" />
    <stop
       offset=".5313"
       stop-color="#fafafa"
       id="stop13" />
    <stop
       offset=".8449"
       stop-color="#ebecec"
       id="stop15" />
    <stop
       offset="1"
       stop-color="#e1e2e3"
       id="stop17" />
  </radialGradient>
  <radialGradient
     id="c"
     cx="108.20914"
     cy="71.064751"
     gradientTransform="matrix(2.64737,8.9140295e-8,-9.5322915e-8,4.0078778,-177.86744,-228.81885)"
     gradientUnits="userSpaceOnUse"
     r="22.436539"
     fx="108.20914"
     fy="71.064751">
    <stop
       offset="0"
       stop-color="#9abcee"
       id="stop20" />
    <stop
       offset="1"
       stop-color="#092042"
       id="stop22" />
  </radialGradient>
  <linearGradient
     id="d"
     gradientUnits="userSpaceOnUse"
     x1="104.8114902"
     x2="104.8114902"
     y1="-12.9027904"
     y2="47.94601">
    <stop
       offset="0"
       stop-color="#bfe7ff"
       id="stop25" />
    <stop
       offset="1"
       stop-color="#bff9ff"
       stop-opacity="0"
       id="stop27" />
  </linearGradient>
  <linearGradient
     id="e"
     gradientUnits="userSpaceOnUse"
     x1="83.896461"
     x2="124.05045"
     y1="82.185677"
     y2="82.185677"
     gradientTransform="translate(-8)">
    <stop
       offset="0"
       stop-color="#001331"
       id="stop30"
       style="stop-color:#5875a0;stop-opacity:1" />
    <stop
       offset="1"
       stop-color="#293e63"
       id="stop32"
       style="stop-color:#6a88b5;stop-opacity:1" />
  </linearGradient>
  <path
     d="m6 6-.013668 121.05794h119.999998l.01367-121.05794z"
     filter="url(#a)"
     opacity=".758364"
     transform="matrix(.96492763 0 0 .96492763 .293768 .293073)"
     id="path35" />
  <path
     d="m8.0131886 8.0124942-.0131886 111.9875058h112l-.0684-.81415.0132-111.1733558z"
     fill="#fff"
     stroke-width=".964928"
     id="path37" />
  <path
     d="m16.697537 15.731915c-.531675 0-.964927.433432-.964927.964928v93.597977h95.2866c1.12141.0343 1.20616-1.54398 1.20616-1.77908v-91.818897c0-.531496-.43229-.964928-.96492-.964928z"
     fill="url(#b)"
     stroke-width=".964928"
     id="path39" />
  <g
     fill="#404040"
     fill-opacity=".839216"
     transform="translate(0 16)"
     id="g47">
    <path
       d="m24 88v-8h60v8z"
       id="path41" />
    <path
       d="m24 56v-8.221681h60.494988v8.221681z"
       id="path43" />
    <path
       d="m24 72v-8h40v8z"
       id="path45" />
  </g>
  <g
     transform="matrix(1 0 0 -1 0 128)"
     id="g59">
    <path
       d="m 99.77334,32.697089 c -2.21289,0.05414 -16.29476,0.518302 -17.711568,2.219032 L 65.99614,65.018999 c -2.541118,3.051869 -2.335727,7.537886 0.473634,10.344785 l 13.59905,0.994999 0.220211,-0.143314 0.03321,47.242161 L 107.67774,124 v -0.006 l -0.0332,-47.11457 13.6707,-0.865664 c 2.92778,-2.789649 3.18996,-7.372015 0.59945,-10.477386 L 97.82636,35.453252 c -1.50122,-1.798818 4.28922,-2.813775 1.94698,-2.756163 z"
       id="path49"
       inkscape:connector-curvature="0"
       style="fill:#ffffff;fill-opacity:0.915441;fill-rule:evenodd"
       sodipodi:nodetypes="cccccccccccccc" />
    <path
       d="M 99.96209,40.371351 77.94015,67.846743 96,64 v 56 h 8 l -1e-5,-55.461122 18.06334,3.831013 z"
       id="path51"
       inkscape:connector-curvature="0"
       style="opacity:1;fill:none;stroke:url(#e);stroke-width:15;stroke-linecap:round;stroke-linejoin:round;stroke-miterlimit:4;stroke-dasharray:none"
       sodipodi:nodetypes="cccccccc" />
    <g
       id="g57"
       transform="translate(-8)"
       style="fill-rule:evenodd">
      <path
         d="M 107.96209,40.371351 87.94015,67.846743 104,64 v 56 h 8 l -1e-5,-55.461125 16.06334,3.831013 z"
         id="path53"
         style="fill:url(#c)"
         inkscape:connector-curvature="0"
         sodipodi:nodetypes="cccccccc" />
      <path
         d="m 104,8 -0.0195,26.132214 c 0.41716,0.01589 0.83427,0.02951 1.25195,0.03906 2.26601,-0.0118 4.4957,-0.659132 6.73828,-0.856823 l -0.0156,-23.147081 0.041,0.0098 L 112,8 Z"
         transform="matrix(1,0,0,-1,0,128)"
         id="path55"
         inkscape:connector-curvature="0"
         style="fill:url(#d)"
         sodipodi:nodetypes="cccccccc" />
    </g>
  </g>
</svg>
